hunting/animals/crab.svg

<svg xmlns="http://www.w3.org/2000/svg" viewBox="0 0 512 512">
  <path d="M 130.21965317919074 3.4527938342967244 Q 78.92100192678227 4.4393063583815024 43.40655105973025 37.98073217726397 L 43.40655105973025 37.98073217726397 L 43.40655105973025 37.98073217726397 Q 8.878612716763005 71.52215799614643 3.9460500963391136 121.83429672447014 Q 3.9460500963391136 121.83429672447014 3.9460500963391136 122.82080924855491 L 3.9460500963391136 129.72639691714835 L 3.9460500963391136 129.72639691714835 L 11.83815028901734 129.72639691714835 L 11.83815028901734 129.72639691714835 L 11.83815028901734 129.72639691714835 L 11.83815028901734 129.72639691714835 L 3.9460500963391136 129.72639691714835 L 3.9460500963391136 129.72639691714835 L 3.9460500963391136 162.28131021194605 L 3.9460500963391136 162.28131021194605 Q 3.9460500963391136 183.98458574181117 14.797687861271676 200.75529865125242 Q 25.649325626204238 218.51252408477842 45.37957610789981 227.39113680154142 L 101.61078998073218 253.04046242774567 L 101.61078998073218 253.04046242774567 Q 95.69171483622351 261.91907514450867 91.74566473988439 271.7842003853564 L 55.24470134874759 271.7842003853564 L 55.24470134874759 271.7842003853564 L 26.63583815028902 257.9730250481696 L 26.63583815028902 257.9730250481696 Q 13.811175337186897 252.05394990366088 5.91907514450867 264.87861271676303 Q 0 278.6897880539499 12.824662813102119 285.59537572254334 L 44.39306358381503 301.3795761078998 L 44.39306358381503 301.3795761078998 Q 47.35260115606936 303.35260115606934 51.298651252408476 303.35260115606934 L 83.85356454720616 303.35260115606934 L 83.85356454720616 303.35260115606934 Q 82.86705202312139 311.2447013487476 82.86705202312139 319.1368015414258 L 82.86705202312139 329.0019267822736 L 82.86705202312139 329.0019267822736 L 62.15028901734104 335.90751445086704 L 62.15028901734104 335.90751445086704 Q 58.204238921001924 336.8940269749518 56.23121387283237 339.8535645472062 L 24.66281310211946 371.4219653179191 L 24.66281310211946 371.4219653179191 Q 14.797687861271676 382.27360308285165 24.66281310211946 393.1252408477842 Q 35.51445086705202 402.99036608863196 46.36608863198459 393.1252408477842 L 75.96146435452793 364.51637764932565 L 75.96146435452793 364.51637764932565 L 103.58381502890174 355.6377649325626 L 103.58381502890174 355.6377649325626 L 133.17919075144508 385.23314065510596 L 133.17919075144508 385.23314065510596 L 93.71868978805395 399.04431599229287 L 93.71868978805395 399.04431599229287 Q 89.77263969171483 400.03082851637765 87.79961464354528 402.99036608863196 L 56.23121387283237 434.55876685934487 L 56.23121387283237 434.55876685934487 Q 46.36608863198459 445.4104046242775 56.23121387283237 456.26204238921 Q 67.08285163776493 466.1271676300578 77.9344894026975 456.26204238921 L 107.52986512524085 427.6531791907515 L 107.52986512524085 427.6531791907515 L 158.82851637764932 410.8824662813102 L 158.82851637764932 410.8824662813102 L 173.626204238921 425.6801541425819 L 173.626204238921 425.6801541425819 L 138.11175337186899 447.383429672447 L 138.11175337186899 447.383429672447 Q 130.21965317919074 452.31599229287093 130.21965317919074 461.1946050096339 L 130.21965317919074 492.7630057803468 L 130.21965317919074 492.7630057803468 Q 131.20616570327553 507.5606936416185 146.0038535645472 508.5472061657033 Q 160.80154142581887 507.5606936416185 161.78805394990366 492.7630057803468 L 161.78805394990366 470.07321772639693 L 161.78805394990366 470.07321772639693 L 203.22157996146436 445.4104046242775 L 203.22157996146436 445.4104046242775 L 309.7649325626204 445.4104046242775 L 309.7649325626204 445.4104046242775 L 351.19845857418113 470.07321772639693 L 351.19845857418113 470.07321772639693 L 351.19845857418113 492.7630057803468 L 351.19845857418113 492.7630057803468 Q 352.1849710982659 507.5606936416185 366.98265895953756 508.5472061657033 Q 381.78034682080926 507.5606936416185 382.76685934489404 492.7630057803468 L 382.76685934489404 461.1946050096339 L 382.76685934489404 461.1946050096339 Q 382.76685934489404 452.31599229287093 374.8747591522158 447.383429672447 L 339.3603082851638 425.6801541425819 L 339.3603082851638 425.6801541425819 L 354.15799614643544 410.8824662813102 L 354.15799614643544 410.8824662813102 L 405.4566473988439 427.6531791907515 L 405.4566473988439 427.6531791907515 L 435.05202312138726 456.26204238921 L 435.05202312138726 456.26204238921 Q 445.90366088631987 466.1271676300578 456.7552986512524 456.26204238921 Q 465.6339113680154 445.4104046242775 456.7552986512524 434.55876685934487 L 425.1868978805395 402.99036608863196 L 425.1868978805395 402.99036608863196 Q 423.21387283236993 400.03082851637765 419.26782273603084 399.04431599229287 L 379.8073217726397 385.23314065510596 L 379.8073217726397 385.23314065510596 L 409.402697495183 355.6377649325626 L 409.402697495183 355.6377649325626 L 437.02504816955684 364.51637764932565 L 437.02504816955684 364.51637764932565 L 466.6204238921002 393.1252408477842 L 466.6204238921002 393.1252408477842 Q 477.4720616570328 402.0038535645472 488.32369942196533 393.1252408477842 Q 497.2023121387283 382.27360308285165 488.32369942196533 371.4219653179191 L 456.7552986512524 339.8535645472062 L 456.7552986512524 339.8535645472062 Q 453.79576107899805 336.8940269749518 450.83622350674375 335.90751445086704 L 430.1194605009634 329.0019267822736 L 430.1194605009634 329.0019267822736 L 430.1194605009634 319.1368015414258 L 430.1194605009634 319.1368015414258 Q 430.1194605009634 311.2447013487476 429.1329479768786 303.35260115606934 L 461.6878612716763 303.35260115606934 L 461.6878612716763 303.35260115606934 Q 464.64739884393066 303.35260115606934 468.59344894026975 301.3795761078998 L 500.16184971098266 285.59537572254334 L 500.16184971098266 285.59537572254334 Q 512 277.70327552986515 507.0674373795761 264.87861271676303 Q 499.1753371868979 252.05394990366088 486.35067437379575 257.9730250481696 L 457.7418111753372 271.7842003853564 L 457.7418111753372 271.7842003853564 L 421.2408477842004 271.7842003853564 L 421.2408477842004 271.7842003853564 Q 417.29479768786126 261.91907514450867 411.3757225433526 253.04046242774567 L 467.60693641618496 227.39113680154142 L 467.60693641618496 227.39113680154142 Q 487.33718689788054 218.51252408477842 498.1888246628131 200.75529865125242 Q 509.04046242774564 183.98458574181117 509.04046242774564 162.28131021194605 L 509.04046242774564 129.72639691714835 L 509.04046242774564 129.72639691714835 L 501.14836223506745 129.72639691714835 L 501.14836223506745 129.72639691714835 Q 501.14836223506745 129.72639691714835 501.14836223506745 129.72639691714835 Q 501.14836223506745 129.72639691714835 501.14836223506745 129.72639691714835 L 509.04046242774564 129.72639691714835 L 509.04046242774564 129.72639691714835 L 509.04046242774564 122.82080924855491 L 509.04046242774564 122.82080924855491 Q 509.04046242774564 121.83429672447014 509.04046242774564 121.83429672447014 Q 509.04046242774564 121.83429672447014 509.04046242774564 121.83429672447014 L 509.04046242774564 121.83429672447014 L 509.04046242774564 121.83429672447014 L 509.04046242774564 121.83429672447014 L 509.04046242774564 121.83429672447014 Q 504.10789980732176 71.52215799614643 469.57996146435454 37.98073217726397 Q 434.0655105973025 4.4393063583815024 382.76685934489404 3.4527938342967244 L 338.373795761079 3.4527938342967244 L 338.373795761079 3.4527938342967244 Q 333.44123314065513 3.4527938342967244 331.46820809248555 8.385356454720617 Q 329.495183044316 12.33140655105973 333.44123314065513 17.263969171483623 L 368.95568400770713 52.77842003853564 L 368.95568400770713 52.77842003853564 Q 372.9017341040462 57.71098265895954 370.9287090558767 61.65703275529865 Q 368.95568400770713 66.58959537572254 364.02312138728325 66.58959537572254 L 327.52215799614646 66.58959537572254 L 327.52215799614646 66.58959537572254 Q 320.616570327553 67.57610789980733 320.616570327553 74.48169556840077 Q 323.5761078998073 98.15799614643545 340.3468208092485 113.94219653179191 Q 358.1040462427746 129.72639691714835 382.76685934489404 129.72639691714835 L 461.6878612716763 129.72639691714835 L 461.6878612716763 129.72639691714835 L 461.6878612716763 162.28131021194605 L 461.6878612716763 162.28131021194605 Q 460.7013487475915 177.07899807321772 447.8766859344894 183.98458574181117 L 377.8342967244701 216.53949903660887 L 377.8342967244701 216.53949903660887 Q 352.1849710982659 197.79576107899808 319.6300578034682 193.84971098265896 L 319.6300578034682 145.5105973025048 L 319.6300578034682 145.5105973025048 Q 318.64354527938343 130.71290944123314 303.84585741811173 129.72639691714835 Q 289.0481695568401 130.71290944123314 288.0616570327553 145.5105973025048 L 288.0616570327553 192.86319845857417 L 288.0616570327553 192.86319845857417 L 224.92485549132948 192.86319845857417 L 224.92485549132948 192.86319845857417 L 224.92485549132948 145.5105973025048 L 224.92485549132948 145.5105973025048 Q 223.9383429672447 130.71290944123314 209.14065510597302 129.72639691714835 Q 194.34296724470136 130.71290944123314 193.35645472061657 145.5105973025048 L 193.35645472061657 193.84971098265896 L 193.35645472061657 193.84971098265896 Q 160.80154142581887 197.79576107899808 135.15221579961465 216.53949903660887 L 65.10982658959537 183.98458574181117 L 65.10982658959537 183.98458574181117 Q 52.285163776493256 177.07899807321772 51.298651252408476 162.28131021194605 L 51.298651252408476 129.72639691714835 L 51.298651252408476 129.72639691714835 L 130.21965317919074 129.72639691714835 L 130.21965317919074 129.72639691714835 Q 154.8824662813102 128.7398843930636 172.63969171483623 113.94219653179191 Q 189.41040462427745 98.15799614643545 193.35645472061657 74.48169556840077 Q 192.36994219653178 67.57610789980733 185.46435452793835 66.58959537572254 L 148.96339113680153 66.58959537572254 L 148.96339113680153 66.58959537572254 Q 144.03082851637765 66.58959537572254 142.05780346820808 61.65703275529865 Q 140.08477842003853 57.71098265895954 144.03082851637765 52.77842003853564 L 179.54527938342966 17.263969171483623 L 179.54527938342966 17.263969171483623 Q 183.49132947976878 12.33140655105973 181.51830443159923 8.385356454720617 Q 179.54527938342966 3.4527938342967244 174.61271676300578 3.4527938342967244 L 130.21965317919074 3.4527938342967244 L 130.21965317919074 3.4527938342967244 Z" />
</svg>

<?xml version="1.0" encoding="UTF-8"?>
<svg viewBox="0 0 512 512" xmlns="http://www.w3.org/2000/svg">
 <path d="m130.22 3.4528q-51.299 0.98651-86.813 34.528-34.528 33.541-39.461 83.854 0 0 0 0.98651v6.9056h7.8921-7.8921v32.555q0 21.703 10.852 38.474 10.852 17.757 30.582 26.636l56.231 25.649q-5.9191 8.8786-9.8651 18.744h-36.501l-28.609-13.811q-12.825-5.9191-20.717 6.9056-5.9191 13.811 6.9056 20.717l31.568 15.784q2.9595 1.973 6.9056 1.973h32.555q-0.98651 7.8921-0.98651 15.784v9.8651l-20.717 6.9056q-3.9461 0.98651-5.9191 3.9461l-31.568 31.568q-9.8651 10.852 0 21.703 10.852 9.8651 21.703 0l29.595-28.609 27.622-8.8786 29.595 29.595-39.461 13.811q-3.9461 0.98651-5.9191 3.9461l-31.568 31.568q-9.8651 10.852 0 21.703 10.852 9.8651 21.703 0l29.595-28.609 51.299-16.771 14.798 14.798-35.514 21.703q-7.8921 4.9326-7.8921 13.811v31.568q0.98651 14.798 15.784 15.784 14.798-0.98651 15.784-15.784v-22.69l41.434-24.663h106.54l41.434 24.663v22.69q0.98651 14.798 15.784 15.784 14.798-0.98651 15.784-15.784v-31.568q0-8.8786-7.8921-13.811l-35.514-21.703 14.798-14.798 51.299 16.771 29.595 28.609q10.852 9.8651 21.703 0 8.8786-10.852 0-21.703l-31.568-31.568q-1.973-2.9595-5.9191-3.9461l-39.461-13.811 29.595-29.595 27.622 8.8786 29.595 28.609q10.852 8.8786 21.703 0 8.8786-10.852 0-21.703l-31.568-31.568q-2.9595-2.9595-5.9191-3.9461l-20.717-6.9056v-9.8651q0-7.8921-0.98651-15.784h32.555q2.9595 0 6.9056-1.973l31.568-15.784q11.838-7.8921 6.9056-20.717-7.8921-12.825-20.717-6.9056l-28.609 13.811h-36.501q-3.9461-9.8651-9.8651-18.744l56.231-25.649q19.73-8.8786 30.582-26.636 10.852-16.771 10.852-38.474v-32.555h-7.8921 7.8921v-6.9056q0-0.98651 0-0.98651-4.9326-50.312-39.461-83.854-35.514-33.541-86.813-34.528h-44.393q-4.9326 0-6.9056 4.9326-1.973 3.9461 1.973 8.8786l35.514 35.514q3.9461 4.9326 1.973 8.8786-1.973 4.9326-6.9056 4.9326h-36.501q-6.9056 0.98651-6.9056 7.8921 2.9595 23.676 19.73 39.461 17.757 15.784 42.42 15.784h78.921v32.555q-0.98651 14.798-13.811 21.703l-70.042 32.555q-25.649-18.744-58.204-22.69v-48.339q-0.98651-14.798-15.784-15.784-14.798 0.98651-15.784 15.784v47.353h-63.137v-47.353q-0.98651-14.798-15.784-15.784-14.798 0.98651-15.784 15.784v48.339q-32.555 3.9461-58.204 22.69l-70.042-32.555q-12.825-6.9056-13.811-21.703v-32.555h78.921q24.663-0.98651 42.42-15.784 16.771-15.784 20.717-39.461-0.98651-6.9056-7.8921-7.8921h-36.501q-4.9326 0-6.9056-4.9326-1.973-3.9461 1.973-8.8786l35.514-35.514q3.9461-4.9326 1.973-8.8786-1.973-4.9326-6.9056-4.9326h-44.393z"/>
</svg>
